X: 2
T: Amazing Grace
C: Words by John Newton
C: Arranged by Edwin O. Excell
M:3/4
K:G
L: 1/4
D |: "G" G2 (B/G/) | B2 A | "C" G2 E | "G" D2 D | E2 (B/G/) |
w: A-maz-ing - grace! How sweet the sound that saved a-
B2 (A/d/) | "D" (d3 | "D7" d2) B | "G" (d3/2 B/) (d/B/) | "G7" G2 D | "C" E2 (G/E/) |
w: wretch like - me! - I once - was - lost, but now am -
"G" D2 D | "Em" G2 (B/G/) | "D" B2 A | "G" (G3 | G3) :|
w: found, was blind, but - now I see. -
W: 'Twas grace that taught my heart to fear,
W: And grace my fears relieved,
W: How precious did that grace appear
W: The hour I first believed.
W:
W: Through many danger, toils, and snares,
W: I have already come,
W: 'Tis grace has brought me safe thus far,
W: And grace will lead me home.
W:
W: The Lord has promised good to me,
W: His word my hope secures,
W: He will my shield and portion be
W: As long as life endures.
W:
W: And when this flesh and heart shall fail,
W: And mortal life shall cease,
W: I shall possess within the veil
W: A life of joy and peace.
W:
W: When we have stood ten thousand years,
W: Bright shining as the Sun,
W: We've no less days to sing God's praise
W: Than when we first begun.


% Following automagically generated by 'abc2abc' from the above:

